!!!!SEGMENT: Vin1001a-Missa_Stabat_mater-Kyrie.krn
!!!id: Vin1001a
!!!AGN: Mass; Kyrie
!!!SCT: Jas (2018)
!!!voices: 5
!!!COM: Jheronimus Vinders
!!!OPR: Missa Stabat mater
!!!OTL: Kyrie
**kern	**kern	**kern	**kern	**kern
*part5	*part4	*part3	*part2	*part1
*staff5	*staff4	*staff3	*staff2	*staff1
*I"Bassus	*I"Tenor	*I"Altus	*I"Superius II	*I"Superius I
*I'B	*I'T	*I'A	*I'S. II	*I'S. I
*clefF4	*clefGv2	*clefGv2	*clefG2	*clefG2
*k[b-]	*k[b-]	*k[b-]	*k[b-]	*k[b-]
*F:	*F:	*F:	*F:	*F:
*M2/1	*M2/1	*M2/1	*M2/1	*M2/1
*met(C)	*met(C)	*met(C)	*met(C)	*met(C)
!!section: Kyrie I
!!!OMD: Kyrie I
=1	=1	=1	=1	=1
0r	1r	1.c	0r	0r
.	[1c	.	.	.
.	.	2c	.	.
=2	=2	=2	=2	=2
1.c	2c]	1A	0r	1r
.	2c	.	.	.
.	1A	1F	.	[1cc
2c	.	.	.	.
=3	=3	=3	=3	=3
1A	1F	1c	0r	2cc]
.	.	.	.	2cc
1F	1c	2c	.	1a
.	.	[2f	.	.
=4	=4	=4	=4	=4
2.B-y	1d	4f]	0r	1f
.	.	4e	.	.
.	.	4d	.	.
4A	.	4c	.	.
1G	1B-y	2d	.	1b-y
.	.	2e	.	.
=5	=5	=5	=5	=5
[0F	1c	1f	1.cc	2.a
.	.	.	.	4f
.	2.A	2r	.	1f
.	.	2c	2cc	.
.	4F	.	.	.
=6	=6	=6	=6	=6
0F]	1F	2d	1a	2r
.	.	2c	.	2f
.	2r	2A	1f	2.cc
.	2F	[2c	.	.
.	.	.	.	4dd
=7	=7	=7	=7	=7
0C	0c	2c]	0g	2ee
.	.	4B-y	.	1ff
.	.	4A	.	.
.	.	1G	.	.
.	.	.	.	2ee
=8	=8	=8	=8	=8
0F	1A	2r	2a	0ff
.	.	2F	4f	.
.	.	.	4g	.
.	1F	2.c	4a	.
.	.	.	4b-y	.
.	.	.	[2cc	.
.	.	4d	.	.
=9	=9	=9	=9	=9
1r	0C	2e	2cc]	0r
.	.	1f	4b-y	.
.	.	.	4a	.
1G	.	.	1g	.
.	.	2e	.	.
=10	=10	=10	=10	=10
1D	2F	2f	0f	2r
.	1A	4e	.	2f
.	.	4d	.	.
1F	.	2c	.	2.a
.	4G	[2f	.	.
.	4F	.	.	4b-y
=11	=11	=11	=11	=11
1C	1G	2f]	1r	1cc
.	.	2e	.	.
1D	2r	2f	[1a	2f
.	2F	[2a	.	[2ff
=12	=12	=12	=12	=12
1F	2.A	4a]	2a]	2ff]
.	.	4g	.	.
.	.	1f	2a	4ee
.	4B-y	.	.	4dd
1C	1c	.	1g	4ee
.	.	.	.	4dd
.	.	2e	.	4cc
.	.	.	.	4b-y
=13	=13	=13	=13	=13
2r	2F	2f	1f	2.a
2D	1f	2F	.	.
.	.	.	.	4f
1F	.	2.A	2r	[1cc
.	4e	.	[2a	.
.	4d	4B-y	.	.
=14	=14	=14	=14	=14
1C	1e	1c	2a]	1cc]
.	.	.	2g	.
2r	2f	2F	2a	1r
2D	4e	[2f	2f	.
.	4d	.	.	.
=15	=15	=15	=15	=15
1F	2c	2f]	2.a	2r
.	2A	4e	.	1cc
.	.	4d	4b-y	.
1C	1G	1e	1cc	.
.	.	.	.	[2cc
=16	=16	=16	=16	=16
2r	2F	2A	2f	2cc]
2F	2D	1.a	1ff	2dd
2.A	1F	.	.	1cc
.	.	.	4ee	.
4B-y	.	.	4dd	.
=17	=17	=17	=17	=17
1c	1C	1g	1ee	1cc
[1F	2r	[1f	2ff	2a
.	2D	.	2f	2dd
=18	=18	=18	=18	=18
1F]	2.F	2f]	2.a	2cc
.	.	2d	.	2.ff
.	4G	.	4b-y	.
1r	2A	2c	2cc	.
.	.	.	.	4ee
.	2B-y	[2f	2f	[2dd
=19	=19	=19	=19	=19
0r	0A	2f]	0a	2dd]
.	.	4e	.	4cc
.	.	4d	.	4b-y
.	.	1e	.	1cc
=20	=20	=20	=20	=20
1r	1B-y	1d	1f	0dd
2r	2G	2r	1g	.
[2G	[2B-y	[2d	.	.
=21	=21	=21	=21	=21
2G]	1B-]	1d]	1d	2r
2G	.	.	.	1dd
1D	2A	[1f	1d	.
.	[2d	.	.	2dd
=22	=22	=22	=22	=22
1D	1d]	2f]	1.f	1a
.	.	4e	.	.
.	.	4d	.	.
[1F	1A	1c	.	1a
.	.	.	4e	.
.	.	.	4d	.
=23	=23	=23	=23	=23
2F]	1A	2r	1c	1.cc
4E	.	2c	.	.
4D	.	.	.	.
1C	[1c	[1e-X	2r	.
.	.	.	2c	4b-y
.	.	.	.	4a
=24	=24	=24	=24	=24
2r	2c]	2e-]	1.e-X	1g
2C	4B-y	4d	.	.
.	4A	4c	.	.
[1E-X	1G	1B-y	.	2r
.	.	.	4d	2g
.	.	.	4c	.
=25	=25	=25	=25	=25
2E-]	2r	1e-i	2.B-y	0b-y
4D	2G	.	.	.
4C	.	.	4c	.
4BB-y	2B-y	1d	4d	.
4C	.	.	4e	.
4D	4A	.	[2f	.
4E	4G	.	.	.
=26	=26	=26	=26	=26
0F	2.F	[0c	2f]	0a
.	.	.	4e	.
.	4G	.	4d	.
.	4A	.	2c	.
.	4B-y	.	.	.
.	[2c	.	[2f	.
=27	=27	=27	=27	=27
0C	2c]	0c]	2f]	0g
.	4B-y	.	4e	.
.	4A	.	4d	.
.	1G	.	1e	.
=28	=28	=28	=28	=28
1.F	2.F	1c	1f	1.a
.	4G	.	.	.
.	2A	2c	[1f	.
2D	2B-y	[2d	.	2f
=29	=29	=29	=29	=29
1D	2A	4d]	2f]	1f
.	.	4c	.	.
.	2.d	2A	2d	.
1BB-y 1G	.	[1B-y	1d	[1b-y
.	4c	.	.	.
.	4B-y	.	.	.
.	4A	.	.	.
=30	=30	=30	=30	=30
1.E-X	1G	1B-]	1.g	2b-]
.	.	.	.	2g
.	[1c	[1G	.	1g
2C	.	.	2e	.
=31	=31	=31	=31	=31
1C	2c]	2G]	1e	1.cc
.	1A	1.c	.	.
[1F	.	.	[1a	.
.	[2F	.	.	2a
=32	=32	=32	=32	=32
1F]	2F]	1A	2a]	1a
.	2D	.	2f	.
1BB-y	1D	1d	1f	[1b-y
=33	=33	=33	=33	=33
1r	1r	2.G	2g	2b-]
.	.	.	4f	4a
.	.	4A	4e	4g
1BB-y	[1F	1B-y	2d	2.f
.	.	.	[2f	.
.	.	.	.	4g
=34	=34	=34	=34	=34
1F	2F]	2.A	4f]	1a
.	.	.	4e	.
.	2F	.	4c	.
.	.	4B-y	4d	.
2E	2G	[1c	2e	2g
2F	2A	.	2c	[2cc
=35	=35	=35	=35	=35
2C	2G	1c]	2r	4cc]
.	.	.	.	4b-y
2F	2F	.	2.cc	2a
2E	2r	1c	.	2g
.	.	.	4b-y	.
2F	2F	.	2a	[2cc
=36	=36	=36	=36	=36
2C	2E	2.c	2g	4cc]
.	.	.	.	4b-y
2F	2F	.	2f	2a
.	.	4d	.	.
2E	2C	2e	2r	2g
2F	2F	2A	2a	2f
=37	=37	=37	=37	=37
2C	2G	2.c	2g	2e
2F	2A	.	2f	2.cc
.	.	4d	.	.
2E	2G	2e	2g	.
.	.	.	.	4b-y
2F	2F	2A	[2cc	2a
=38	=38	=38	=38	=38
2C	2E	[0c	4cc]	2g
.	.	.	4b-y	.
2F	2F	.	2a	2f
1G	1C	.	2.g	2.e
.	.	.	4f	4d
=39	=39	=39	=39	=39
2A	2r	0c]	2e	2c
2F	2A	.	2f	2.cc
2E	2G	.	2r	.
.	.	.	.	4b-y
2F	2F	.	2f	2a
=40	=40	=40	=40	=40
2C	2.c	1c	2e	2g
1F	.	.	2f	2.a
.	4B-y	.	.	.
.	1A	2r	1c	.
.	.	.	.	4g
2F	.	[2c	.	2f
=41	=41	=41	=41	=41
2C	2G	2c]	1r	2e
2D	2F	2B-y	.	2.f
1C	1G	1c	1g	.
.	.	.	.	4e
.	.	.	.	2e
=42	=42	=42	=42	=42
2.F	[0Fl	0A	2.a	[0fl
4E	.	.	4g	.
2D	.	.	2f	.
2C	.	.	2e	.
=43	=43	=43	=43	=43
2BB-y	0F_	2B-y	2d	0f_
2F	.	2A	2c	.
1BB-y	.	1B-y	1d	.
=	=	=	=	=
00F	00F]	00A	00c	00f]
=||	=||	=||	=||	=||
*M2/1	*M2/1	*M2/1	*M2/1	*M2/1
*met(C|)	*met(C|)	*met(C|)	*met(C|)	*met(C|)
!!section: Christe
!!!OMD: Christe
1F	1r	0r	0r	0r
[1A	1F	.	.	.
=44	=44	=44	=44	=44
2A]	1.A	1F	0r	0r
2B-y	.	.	.	.
1c	.	[1A	.	.
.	2B-y	.	.	.
=45	=45	=45	=45	=45
[0F	1c	2A]	1r	1f
.	.	2B-y	.	.
.	1F	1c	1f	[1a
=46	=46	=46	=46	=46
0F]	2r	1F	1.a	2a]
.	2F	.	.	2b-y
.	[1A	2r	.	1cc
.	.	[2c	2b-y	.
=47	=47	=47	=47	=47
1F	2A]	2c]	2cc	1f
.	2B-y	2d	4b-y	.
.	.	.	4a	.
2r	1c	2e	2g	2r
[2F	.	2c	[2a	[2cc
=48	=48	=48	=48	=48
2F]	0A	1f	4a]	2cc]
.	.	.	4g	.
4E	.	.	4a	2cc
4D	.	.	4b-y	.
1C	.	1e	1cc	1cc
=49	=49	=49	=49	=49
2BB-y	1B-y	2.d	1f	1dd
2B-y	.	.	.	.
.	.	4e	.	.
2A	2r	2f	1r	2r
[2G	2B-y	[2e	.	[2b-y
=50	=50	=50	=50	=50
2G]	2G	4e]	0r	2b-]
.	.	4d	.	.
2F	2A	1d	.	2a
1E	2B-y	.	.	1g
.	2G	2c	.	.
=51	=51	=51	=51	=51
1D	1A	1d	1r	1f
[1E-X	1G	[1B-y	[1g	[1b-y
=52	=52	=52	=52	=52
2E-]	1.B-y	2B-]	2g]	0b-]
4D	.	2c	4f	.
4C	.	.	4e	.
1BB-y	.	2d	2.f	.
.	4A	2B-y	.	.
.	4G	.	4g	.
=53	=53	=53	=53	=53
0F	2.F	0c	2a	0a
.	.	.	1f	.
.	4G	.	.	.
.	4A	.	.	.
.	4B-y	.	.	.
.	[2c	.	4e	.
.	.	.	4d	.
=54	=54	=54	=54	=54
0C	2c]	1r	2e	1g
.	4B-y	.	1f	.
.	4A	.	.	.
.	1G	[1c	.	1g
.	.	.	2e	.
=55	=55	=55	=55	=55
1.c	0F	2c]	1f	0a
.	.	2B-y	.	.
.	.	2A	[1cc	.
2B-y	.	2G	.	.
=56	=56	=56	=56	=56
2A	0c	2.F	2cc]	0r
2G	.	.	2b-y	.
.	.	4E	.	.
2F	.	2F	2a	.
2E	.	2G	[2g	.
=57	=57	=57	=57	=57
1F	1r	1A	4g]	0r
.	.	.	4f	.
.	.	.	1f	.
1C	[1c	1G	.	.
.	.	.	2e	.
=58	=58	=58	=58	=58
1.c	2c]	0F	0f	1r
.	2B-y	.	.	.
.	2A	.	.	[1cc
2B-y	2G	.	.	.
=59	=59	=59	=59	=59
2A	2.F	0r	0r	2cc]
2G	.	.	.	2b-y
.	4E	.	.	.
2F	2F	.	.	2a
2E	2G	.	.	[2g
=60	=60	=60	=60	=60
1F	1A	0r	1cc	2g]
.	.	.	.	1f
1C	1G	.	2.cc	.
.	.	.	.	2e
.	.	.	4b-y	.
=61	=61	=61	=61	=61
[0F	0F	1r	[0a	1f
.	.	[1f	.	1r
=62	=62	=62	=62	=62
0F]	0r	2f]	0a]	1.ff
.	.	2e	.	.
.	.	2d	.	.
.	.	2c	.	2ee
=63	=63	=63	=63	=63
1F	0r	1f	1a	2dd
.	.	.	.	1cc
1G	.	1d	1g	.
.	.	.	.	2bni
=64	=64	=64	=64	=64
1.A	0r	0c	1e	0cc
.	.	.	2.f	.
2G	.	.	.	.
.	.	.	4e	.
=65	=65	=65	=65	=65
2F	0r	0r	2d	0r
2E	.	.	1c	.
1D	.	.	.	.
.	.	.	2Bni	.
=66	=66	=66	=66	=66
0C	1.c	2.c	0c	1r
.	.	4B-y	.	.
.	.	2A	.	[1cc
.	2B-y	2G	.	.
=67	=67	=67	=67	=67
0c	2A	2.F	0r	2cc]
.	2G	.	.	2b-y
.	.	4E	.	.
.	2F	2F	.	2a
.	2E	2G	.	[2g
=68	=68	=68	=68	=68
1r	1F	1A	1cc	4g]
.	.	.	.	4f
.	.	.	.	1f
[1c	1C	1G	2.cc	.
.	.	.	.	2e
.	.	.	4b-y	.
=69	=69	=69	=69	=69
2c]	1.c	0F	2a	1f
2B-y	.	.	2g	.
2A	.	.	2f	[1cc
2G	2B-y	.	2e	.
=70	=70	=70	=70	=70
1F	2A	2c	1f	2cc]
.	2G	2.d	.	2b-y
2F	2F	.	1r	2a
.	.	4c	.	.
2C	2E	[2c	.	[2g
=71	=71	=71	=71	=71
2E	2C	4c]	1r	4g]
.	.	4B-y	.	4f
2F	2D	2B-y	.	1f
1G	1C	1c	[1cc	.
.	.	.	.	2e
=72	=72	=72	=72	=72
0F	0F	1.A	2cc]	2f
.	.	.	2b-y	1ff
.	.	.	1a	.
.	.	2B-y	.	4ee
.	.	.	.	4dd
=	=	=	=	=
00C	00G	00c	00g	00ee
=||	=||	=||	=||	=||
*M2/1	*M2/1	*M2/1	*M2/1	*M2/1
*met(C)	*met(C)	*met(C)	*met(C)	*met(C)
!!section: Kyrie II
!!!OMD: Kyrie II
1c	0r	0r	0r	0r
2d	.	.	.	.
[2c	.	.	.	.
=73	=73	=73	=73	=73
4c]	1c	0r	0r	0r
4B-y	.	.	.	.
4A	.	.	.	.
4G	.	.	.	.
2F	2d	.	.	.
2F	[2c	.	.	.
=74	=74	=74	=74	=74
2.A	4c]	0r	0r	0r
.	4B-y	.	.	.
.	4A	.	.	.
4B-y	4G	.	.	.
1c	1F	.	.	.
=75	=75	=75	=75	=75
0F	2F	1c	0r	0r
.	2.A	.	.	.
.	.	2d	.	.
.	4B-y	.	.	.
.	2c	[2c	.	.
=76	=76	=76	=76	=76
0r	[0F	4c]	0r	1cc
.	.	4B-y	.	.
.	.	4A	.	.
.	.	4G	.	.
.	.	1F	.	2dd
.	.	.	.	[2cc
=77	=77	=77	=77	=77
0r	0F]	2F	1cc	4cc]
.	.	.	.	4b-y
.	.	2.A	.	4a
.	.	.	.	4g
.	.	.	2dd	2f
.	.	4B-y	.	.
.	.	2c	[2cc	2f
=78	=78	=78	=78	=78
0r	0r	[0F	4cc]	2.a
.	.	.	4b-y	.
.	.	.	4a	.
.	.	.	4g	4b-y
.	.	.	2f	1cc
.	.	.	2f	.
=79	=79	=79	=79	=79
0r	0r	0F]	2.a	2.f
.	.	.	4b-y	4g
.	.	.	2cc	1a
.	.	.	2f	.
=80	=80	=80	=80	=80
1G	0r	0r	2g	2b-y
.	.	.	2b-y	2g
2A	.	.	2a	2f
[2G	.	.	[2b-y	[2g
=81	=81	=81	=81	=81
4G]	1G	0r	4b-]	4g]
4F	.	.	4a	4a
4E	.	.	4g	2b-y
4D	.	.	4f	.
2C	2A	.	1e	2cc
2C	[2G	.	.	4b-y
.	.	.	.	4a
=82	=82	=82	=82	=82
2.E	4G]	0r	2e	0g
.	4F	.	.	.
.	4E	.	2.g	.
4F	4D	.	.	.
1G	1C	.	.	.
.	.	.	4f	.
.	.	.	4e	.
.	.	.	4d	.
=83	=83	=83	=83	=83
0C	2C	1g	0e	0r
.	2.E	.	.	.
.	.	2a	.	.
.	4F	.	.	.
.	2G	[2g	.	.
=84	=84	=84	=84	=84
0r	[0C	4g]	0r	1g
.	.	4f	.	.
.	.	4e	.	.
.	.	4d	.	.
.	.	1c	.	2a
.	.	.	.	[2g
=85	=85	=85	=85	=85
0r	0C_	2c	1g	4g]
.	.	.	.	4f
.	.	2.e	.	4e
.	.	.	.	4d
.	.	.	2a	2c
.	.	4f	.	.
.	.	2g	[2g	2c
=86	=86	=86	=86	=86
1r	0C]	1.c	4g]	2.e
.	.	.	4f	.
.	.	.	4e	.
.	.	.	4d	4f
2r	.	.	2c	1g
[2c	.	[2e	2c	.
=87	=87	=87	=87	=87
4c]	0r	2e]	2.e	2c
4B-y	.	.	.	.
2A	.	4d	.	1cc
.	.	4c	4f	.
1G	.	1d	1g	.
.	.	.	.	2bni
=88	=88	=88	=88	=88
1C	1G	[0c	1e	[0cc
2r	2A	.	2e	.
2C	2G	.	[2g	.
=89	=89	=89	=89	=89
1F	1A	0c]	4g]	0cc]
.	.	.	4f	.
.	.	.	1f	.
1C	1G	.	.	.
.	.	.	2e	.
=90	=90	=90	=90	=90
1A	1F	2r	1f	2r
.	.	2c	.	2cc
2G	1r	1d	2r	2b-y
2F	.	.	2f	[2a
=91	=91	=91	=91	=91
1G	0r	1B-y	2d	2a]
.	.	.	2d	2g
1D	.	[1A	1f	[1a
=92	=92	=92	=92	=92
2r	0r	0A_	1c	1a]
2F	.	.	.	.
2D	.	.	[1f	2r
2D	.	.	.	[2a
=93	=93	=93	=93	=93
1F	1r	1A]	2f]	2a]
.	.	.	4e	2a
.	.	.	4d	.
1C	2r	1r	[1e	1cc
.	2G	.	.	.
=94	=94	=94	=94	=94
2r	2c	2r	1e]	1g
2C	2c	1c	.	.
2F	2A	.	1f	2r
2F	2A	2f	.	2cc
=95	=95	=95	=95	=95
2D	2.d	2f	2r	2ff
2D	.	2d	2f	2ff
.	4c	.	.	.
2.G	4B-y	2d	2b-y	2dd
.	4A	.	.	.
.	2G	[2g	2b-y	2dd
4F	.	.	.	.
=96	=96	=96	=96	=96
4E	1r	4g]	2g	2.gg
4D	.	4f	.	.
2C	.	4e	2g	.
.	.	4d	.	4ff
2r	2r	2c	2.cc	4ee
.	.	.	.	4dd
2C	2c	2r	.	2cc
.	.	.	4b-y	.
=97	=97	=97	=97	=97
2F	2c	2c	4a	2r
.	.	.	4g	.
2F	2A	2f	2f	2cc
2D	2.d	2f	2r	2ff
2D	.	2d	2f	2ff
.	4c	.	.	.
=98	=98	=98	=98	=98
2.G	4B-y	2d	2b-y	2dd
.	4A	.	.	.
.	2G	2.g	2b-y	2dd
4F	.	.	.	.
4E	2G	.	2g	2.gg
4D	.	4f	.	.
2C	2c	4e	2g	.
.	.	4d	.	4ff
=99	=99	=99	=99	=99
2r	2c	1c	2.cc	4ee
.	.	.	.	4dd
1F	2A	.	.	2cc
.	.	.	4b-y	.
.	1d	1r	4a	1r
.	.	.	4g	.
2D	.	.	2f	.
=100	=100	=100	=100	=100
2E	1G	2r	1g	2r
2C	.	2g	.	2ee
2D	1r	2f	1r	2dd
[2C	.	[2g	.	[2ee
=101	=101	=101	=101	=101
4C]	0r	4g]	0r	4ee]
4D	.	4f	.	4dd
4E	.	2e	.	1cc
4F	.	.	.	.
1G	.	1d	.	.
.	.	.	.	2bni
=102	=102	=102	=102	=102
2C	2r	1c	2r	1cc
2F	2c	.	2a	.
2r	2B-y	1r	2g	1r
[2F	[2c	.	[2a	.
=103	=103	=103	=103	=103
2F]	4c]	0r	4a]	0r
.	4B-y	.	4g	.
2F	2A	.	1f	.
1C	1G	.	.	.
.	.	.	2e	.
=104	=104	=104	=104	=104
2D	2F	2r	2f	2r
2C	2c	1.g	2e	2ee
2G	2Bni	.	1r	2dd
[2C	2c	.	.	[2ee
=105	=105	=105	=105	=105
4C]	1e	2c	0r	4ee]
4D	.	.	.	4dd
4E	.	2.g	.	1cc
4F	.	.	.	.
1G	1d	.	.	.
.	.	4f	.	.
.	.	2d	.	2bni
=106	=106	=106	=106	=106
2C	1c	2e	2r	[0ccl
2F	.	2c	2a	.
2E	2c	2r	2g	.
[2F	2F	2c	[2a	.
=107	=107	=107	=107	=107
2F]	1A	2F	4a]	0cc_
.	.	.	4g	.
2F	.	2.c	1f	.
1C	1G	.	.	.
.	.	4B-y	.	.
.	.	2G	2e	.
=108	=108	=108	=108	=108
00Fl	00Fl	00Al	00fl	00cc]
==	==	==	==	==
*-	*-	*-	*-	*-
!!!system-decoration: [*]
!!!RDF**kern: i = editorial accidental
!!!RDF**kern: l = terminal long
!!!ENC: Benjamin Ory
!!!END: 2022/2/23
!!!EED: Benjamin Ory
!!!EEV: 2022/02/23
!!!YEC: Copyright 2022 Benjamin Ory, All Rights Reserved
!!!ONB: Translated from MusicXML on 2022/02/23
